brandFactory_export/2.Regular/Anular_2Regular.svg

<?xml version="1.0" encoding="UTF-8"?>
<svg width="24px" height="24px" viewBox="0 0 24 24" version="1.1" xmlns="http://www.w3.org/2000/svg" xmlns:xlink="http://www.w3.org/1999/xlink">
    <title>2.Regular/Anular_2Regular</title>
    <g id="Symbols" stroke="none" stroke-width="1" fill="none" fill-rule="evenodd">
        <g id="2.Regular/Anular_2Regular" fill="#5CB615" fill-rule="nonzero">
            <path d="M11.8084034,22.1478992 C8.69243697,22.1478992 6.29915966,21.4621849 4.60168067,20.087395 L20.0840336,4.60504202 C21.4621849,6.30252101 22.1478992,8.69915966 22.1478992,11.8184874 C22.1478992,18.7663866 18.7630252,22.1478992 11.8084034,22.1478992 M11.8084034,1.47563025 C14.9411765,1.47563025 17.3411765,2.16806723 19.0420168,3.55630252 L3.55630252,19.0453782 C2.16806723,17.3445378 1.47563025,14.9445378 1.47563025,11.8151261 C1.47563025,4.85714286 4.85714286,1.47563025 11.8084034,1.47563025 M11.8084034,0 C4.34621849,0 0,3.76806723 0,11.8151261 C0,19.8621849 4.34621849,23.6235294 11.8084034,23.6235294 C19.2705882,23.6235294 23.6235294,19.8621849 23.6235294,11.8151261 C23.6235294,3.76806723 19.2705882,0 11.8084034,0" id="Anular_2Regular"></path>
        </g>
    </g>
</svg>

<svg width="24" height="24" viewBox="0 0 24 24" xmlns="http://www.w3.org/2000/svg"><path d="M11.808 22.148c-3.116 0-5.509-.686-7.206-2.06L20.084 4.604c1.378 1.698 2.064 4.094 2.064 7.213 0 6.948-3.385 10.33-10.34 10.33m0-20.672c3.133 0 5.533.692 7.234 2.08L3.556 19.046c-1.388-1.701-2.08-4.101-2.08-7.23 0-6.959 3.381-10.34 10.332-10.34m0-1.476C4.346 0 0 3.768 0 11.815s4.346 11.809 11.808 11.809c7.463 0 11.816-3.762 11.816-11.809C23.624 3.768 19.27 0 11.808 0" fill="#5CB615" fill-rule="nonzero"/></svg>
